;FLAVOR:Marlin
;TIME:1572
;Filament used: 1.0035m
;Layer height: 0.2
;MINX:139.789
;MINY:139.32
;MINZ:0.2
;MAXX:160.186
;MAXY:160.441
;MAXZ:20.8
;TARGET_MACHINE.NAME:Artillery Sidewinder X1
;Generated with Cura_SteamEngine 5.7.1
M140 S60
M105
M190 S60
M104 S200
M105
M109 S200
M82 ;absolute extrusion mode
G28 ; home all axes
 M117 Purge extruder
 G92 E0 ; reset extruder
 G1 Z1.0 F3000 ; move z up little to prevent scratching of surface
 G1 X2 Y20 Z0.3 F5000.0 ; move to start-line position
 G1 X2 Y200.0 Z0.3 F1500.0 E15 ; draw 1st line
 G1 X2 Y200.0 Z0.4 F5000.0 ; move to side a little
 G1 X2 Y20 Z0.4 F1500.0 E30 ; draw 2nd line
 G92 E0 ; reset extruder
 G1 Z1.0 F3000 ; move z up little to prevent scratching of surface
G92 E0
G92 E0
G1 F1500 E-2
;LAYER_COUNT:104
;LAYER:0
M107
G1 F300 Z0.4
G0 F6000 X143.212 Y141.649 Z0.4
;TYPE:SKIRT
G1 F300 Z0.2
G1 F1500 E0
G1 F1200 X143.895 Y141.166 E0.03061
G1 X144.269 Y141.086 E0.0446
G1 X144.279 Y141.084 E0.04497
G1 X144.548 Y141.013 E0.05515
G1 X144.566 Y141.007 E0.05584
G1 X144.926 Y140.879 E0.06982
G1 X144.956 Y140.866 E0.07102
G1 X145.348 Y140.657 E0.08727
G1 X145.368 Y140.645 E0.08813
G1 X145.667 Y140.441 E0.10137
G1 X145.68 Y140.431 E0.10197
G1 X145.938 Y140.225 E0.11405
G1 X145.947 Y140.218 E0.11446
G1 X146.172 Y140.019 E0.12545
G1 X146.756 Y139.591 E0.15194
G1 X146.763 Y139.586 E0.15226
G1 X147.022 Y139.379 E0.16439
G1 X147.184 Y139.32 E0.1707
G1 X147.587 Y139.344 E0.18547
G1 X147.93 Y139.459 E0.1987
G1 X147.938 Y139.461 E0.199
G1 X148.497 Y139.626 E0.22033
G1 X148.932 Y139.941 E0.23998
G1 X148.946 Y139.95 E0.24059
G1 X149.209 Y140.112 E0.25189
G1 X149.23 Y140.124 E0.25277
G1 X149.581 Y140.289 E0.26696
G1 X149.606 Y140.299 E0.26795
G1 X149.948 Y140.412 E0.28113
G1 X149.969 Y140.418 E0.28192
G1 X150.248 Y140.481 E0.29239
G1 X150.265 Y140.484 E0.29302
G1 X150.825 Y140.565 E0.31372
G1 X150.905 Y140.561 E0.31665
G1 X150.976 Y140.545 E0.31932
G1 X150.999 Y140.558 E0.32028
G1 X151.059 Y140.582 E0.32265
G1 X151.406 Y140.665 E0.3357
G1 X151.478 Y140.67 E0.33834
G1 X151.496 Y140.668 E0.339
G1 X151.556 Y140.697 E0.34144
G1 X151.864 Y140.789 E0.3532
G1 X151.933 Y140.798 E0.35575
G1 X151.997 Y140.796 E0.35809
G1 X152.081 Y140.864 E0.36204
G1 X152.251 Y140.927 E0.36868
G1 X152.391 Y140.914 E0.37382
G1 X152.435 Y140.966 E0.37631
G1 X152.518 Y141.025 E0.38004
G1 X153.237 Y141.323 E0.40851
G1 X153.25 Y141.328 E0.40902
G1 X153.64 Y141.462 E0.42411
G1 X153.667 Y141.469 E0.42513
G1 X154.021 Y141.542 E0.43836
G1 X154.041 Y141.546 E0.4391
G1 X154.456 Y141.591 E0.45437
G1 X154.482 Y141.592 E0.45533
G1 X154.896 Y141.589 E0.47047
G1 X154.929 Y141.586 E0.47169
G1 X155.337 Y141.52 E0.48681
G1 X155.357 Y141.516 E0.48755
G1 X155.699 Y141.428 E0.50047
G1 X155.718 Y141.422 E0.5012
G1 X156.064 Y141.299 E0.51464
G1 X156.375 Y141.233 E0.52627
G1 X156.911 Y141.242 E0.54588
G1 X157.642 Y141.412 E0.57334
G1 X157.947 Y141.528 E0.58528
G1 X158.213 Y141.728 E0.59745
G1 X158.892 Y142.447 E0.63364
G1 X159.037 Y142.773 E0.64669
G1 X159.181 Y143.696 E0.68087
G1 X159.161 Y143.967 E0.69081
G1 X159.045 Y144.317 E0.7043
G1 X158.711 Y144.745 E0.72416
G1 X158.696 Y144.768 E0.72517
G1 X158.508 Y145.085 E0.73865
G1 X158.497 Y145.106 E0.73952
G1 X158.353 Y145.423 E0.75226
G1 X158.343 Y145.448 E0.75324
G1 X158.218 Y145.844 E0.76843
G1 X158.21 Y145.878 E0.76971
G1 X158.142 Y146.346 E0.78701
G1 X158.14 Y146.381 E0.7883
G1 X158.148 Y146.9 E0.80729
G1 X158.153 Y146.943 E0.80887
G1 X158.266 Y147.469 E0.82855
G1 X158.272 Y147.493 E0.82946
G1 X158.378 Y147.81 E0.84169
G1 X158.382 Y147.821 E0.84212
G1 X158.543 Y148.229 E0.85816
G1 X158.674 Y148.355 E0.86481
G1 X158.715 Y148.37 E0.86641
G1 X158.703 Y148.388 E0.8672
G1 X158.678 Y148.578 E0.87421
G1 X158.831 Y149.033 E0.89178
G1 X158.843 Y149.062 E0.89292
G1 X159.04 Y149.454 E0.90898
G1 X159.053 Y149.475 E0.90988
G1 X159.215 Y149.723 E0.92072
G1 X159.225 Y149.738 E0.92138
G1 X159.44 Y150.014 E0.93418
G1 X159.449 Y150.025 E0.9347
G1 X159.576 Y150.168 E0.94169
G1 X159.769 Y150.74 E0.96378
G1 X159.773 Y150.753 E0.96428
G1 X159.908 Y151.086 E0.97742
G1 X160.001 Y151.337 E0.98722
G1 X160.013 Y151.771 E1.0031
G1 X160.015 Y151.796 E1.00402
G1 X160.093 Y152.341 E1.02416
G1 X160.097 Y152.362 E1.02494
G1 X160.121 Y152.459 E1.0286
G1 X160.161 Y153.393 E1.0628
G1 X159.9 Y154.465 E1.10317
G1 X159.757 Y154.707 E1.11345
G1 X159.438 Y154.916 E1.12741
G1 X158.881 Y155.137 E1.14933
G1 X158.528 Y155.229 E1.16268
G1 X158.24 Y155.273 E1.17333
G1 X158.221 Y155.276 E1.17404
G1 X157.821 Y155.373 E1.1891
G1 X157.781 Y155.387 E1.19065
G1 X157.311 Y155.604 E1.20959
G1 X157.272 Y155.628 E1.21126
G1 X156.924 Y155.887 E1.22713
G1 X156.892 Y155.915 E1.22869
G1 X156.62 Y156.216 E1.24353
G1 X156.598 Y156.245 E1.24486
G1 X156.367 Y156.605 E1.26051
G1 X156.348 Y156.641 E1.262
G1 X156.17 Y157.079 E1.2793
G1 X156.159 Y157.114 E1.28064
G1 X156.071 Y157.509 E1.29545
G1 X156.068 Y157.525 E1.29604
G1 X156.032 Y157.771 E1.30514
G1 X155.955 Y157.889 E1.31029
G1 X155.73 Y158.072 E1.32091
G1 X155.722 Y158.078 E1.32127
G1 X155.48 Y158.295 E1.33316
G1 X155.468 Y158.307 E1.33378
G1 X155.203 Y158.585 E1.34784
G1 X155.191 Y158.598 E1.34848
G1 X155.037 Y158.788 E1.35743
G1 X155.028 Y158.8 E1.35798
G1 X154.814 Y159.104 E1.37158
G1 X154.247 Y159.628 E1.39983
G1 X153.766 Y159.829 E1.4189
G1 X152.508 Y160.094 E1.46594
G1 X152.127 Y160.095 E1.47988
G1 X151.819 Y159.957 E1.49222
G1 X151.473 Y159.781 E1.50643
G1 X151.454 Y159.773 E1.50718
G1 X151.188 Y159.667 E1.51766
G1 X151.165 Y159.659 E1.51855
G1 X150.849 Y159.573 E1.53053
G1 X150.813 Y159.566 E1.53187
G1 X150.421 Y159.527 E1.54628
G1 X150.383 Y159.527 E1.54767
G1 X150.061 Y159.551 E1.55949
G1 X150.028 Y159.556 E1.56071
G1 X149.534 Y159.669 E1.57925
G1 X149.493 Y159.682 E1.58082
G1 X149.102 Y159.858 E1.59651
G1 X149.08 Y159.869 E1.59741
G1 X148.774 Y160.049 E1.6104
G1 X148.762 Y160.057 E1.61093
G1 X148.46 Y160.263 E1.6243
G1 X147.904 Y160.441 E1.64566
G1 X147.649 Y160.419 E1.65502
G1 X146.605 Y160.045 E1.6956
G1 X146.38 Y159.858 E1.7063
G1 X146.102 Y159.586 E1.72053
G1 X146.093 Y159.578 E1.72097
G1 X145.727 Y159.256 E1.73881
G1 X145.71 Y159.242 E1.73961
G1 X145.489 Y159.083 E1.74957
G1 X145.48 Y159.077 E1.74997
G1 X145.171 Y158.879 E1.76339
G1 X145.163 Y158.874 E1.76374
G1 X144.408 Y158.434 E1.79571
G1 X143.884 Y157.852 E1.82436
G1 X143.628 Y157.456 E1.84161
G1 X143.617 Y157.441 E1.8423
G1 X143.385 Y157.14 E1.8562
G1 X143.372 Y157.124 E1.85695
G1 X143.172 Y156.91 E1.86767
G1 X143.154 Y156.893 E1.86858
G1 X142.818 Y156.606 E1.88474
G1 X142.8 Y156.592 E1.88558
G1 X142.586 Y156.444 E1.8951
G1 X142.567 Y156.432 E1.89592
G1 X142.218 Y156.241 E1.91047
G1 X142.197 Y156.231 E1.91133
G1 X141.813 Y156.071 E1.92655
G1 X141.617 Y156.002 E1.93415
G1 X140.981 Y155.699 E1.95992
G1 X140.718 Y155.483 E1.97237
G1 X140.618 Y155.235 E1.98216
G1 X140.602 Y155.046 E1.9891
G1 X140.631 Y154.85 E1.99635
G1 X140.877 Y154.208 E2.0215
G1 X141.102 Y153.737 E2.0406
G1 X141.111 Y153.714 E2.0415
G1 X141.25 Y153.31 E2.05713
G1 X141.256 Y153.291 E2.05786
G1 X141.35 Y152.909 E2.07225
G1 X141.355 Y152.874 E2.07355
G1 X141.39 Y152.442 E2.0894
G1 X141.391 Y152.415 E2.09039
G1 X141.373 Y151.98 E2.10632
G1 X141.371 Y151.96 E2.10706
G1 X141.331 Y151.663 E2.11802
G1 X141.329 Y151.652 E2.11843
G1 X141.269 Y151.33 E2.13041
G1 X141.267 Y151.321 E2.13075
G1 X141.177 Y150.93 E2.14543
G1 X141.166 Y150.895 E2.14677
G1 X141.153 Y150.864 E2.148
G1 X141.177 Y150.723 E2.15323
G1 X141.18 Y150.701 E2.15405
G1 X141.24 Y149.783 E2.1877
G1 X141.25 Y149.546 E2.19638
G1 X141.324 Y149.523 E2.19922
G1 X141.381 Y149.466 E2.20217
G1 X141.466 Y149.341 E2.2077
G1 X141.503 Y149.242 E2.21156
G1 X141.511 Y149.174 E2.21407
G1 X141.592 Y149.151 E2.21715
G1 X141.653 Y149.093 E2.22023
G1 X141.94 Y148.689 E2.23836
G1 X141.951 Y148.672 E2.2391
G1 X142.115 Y148.389 E2.25107
G1 X142.121 Y148.378 E2.25153
G1 X142.311 Y148.001 E2.26697
G1 X142.328 Y147.959 E2.26863
G1 X142.423 Y147.603 E2.28211
G1 X142.487 Y147.533 E2.28558
G1 X142.576 Y147.276 E2.29553
G1 X142.58 Y147.145 E2.30033
G1 X142.576 Y147.14 E2.30056
G1 X142.893 Y146.496 E2.32682
G1 X142.897 Y146.488 E2.32715
G1 X143.081 Y146.07 E2.34386
G1 X143.091 Y146.042 E2.34495
G1 X143.248 Y145.499 E2.36563
G1 X143.254 Y145.474 E2.36657
G1 X143.351 Y144.897 E2.38797
G1 X143.322 Y144.747 E2.39356
G1 X143.362 Y144.613 E2.39868
G1 X143.319 Y144.183 E2.41449
G1 X143.317 Y144.168 E2.41504
G1 X143.272 Y143.907 E2.42473
G1 X143.267 Y143.886 E2.42552
G1 X143.182 Y143.573 E2.43739
G1 X143.174 Y143.548 E2.43835
G1 X142.983 Y143.081 E2.45681
G1 X142.979 Y143.071 E2.4572
G1 X142.965 Y143.054 E2.45801
G1 X142.816 Y142.729 E2.47109
G1 X142.772 Y142.47 E2.4807
G1 X142.864 Y142.179 E2.49187
G1 X143.082 Y141.784 E2.50837
G1 X143.212 Y141.649 E2.51523
G0 F6000 X143.501 Y141.983
G1 F1200 X144.075 Y141.578 E2.54093
G1 X144.362 Y141.516 E2.55167
G1 X144.391 Y141.509 E2.55276
G1 X144.66 Y141.438 E2.56294
G1 X144.713 Y141.422 E2.56497
G1 X145.073 Y141.294 E2.57895
G1 X145.163 Y141.254 E2.58255
G1 X145.555 Y141.045 E2.5988
G1 X145.616 Y141.008 E2.60141
G1 X145.915 Y140.804 E2.61466
G1 X145.955 Y140.775 E2.61646
G1 X146.213 Y140.569 E2.62854
G1 X146.238 Y140.547 E2.62976
G1 X146.44 Y140.369 E2.63961
G1 X147.016 Y139.946 E2.66576
G1 X147.037 Y139.93 E2.66672
G1 X147.239 Y139.769 E2.67617
G1 X147.251 Y139.764 E2.67665
G1 X147.503 Y139.78 E2.68589
G1 X147.79 Y139.876 E2.69696
G1 X147.813 Y139.883 E2.69784
G1 X148.299 Y140.027 E2.71638
G1 X148.674 Y140.298 E2.73331
G1 X148.715 Y140.325 E2.73511
G1 X148.978 Y140.487 E2.74641
G1 X149.043 Y140.522 E2.74911
G1 X149.394 Y140.687 E2.7633
G1 X149.468 Y140.717 E2.76622
G1 X149.81 Y140.83 E2.7794
G1 X149.872 Y140.847 E2.78175
G1 X150.151 Y140.91 E2.79222
G1 X150.202 Y140.919 E2.79411
G1 X150.762 Y141 E2.81481
G1 X150.916 Y140.994 E2.82045
G1 X150.956 Y141.01 E2.82203
G1 X151.303 Y141.093 E2.83508
G1 X151.389 Y141.099 E2.83823
G1 X151.43 Y141.118 E2.83989
G1 X151.738 Y141.21 E2.85165
G1 X151.83 Y141.222 E2.85504
G1 X151.928 Y141.277 E2.85915
G1 X152.098 Y141.34 E2.86579
G1 X152.264 Y141.37 E2.87196
G1 X152.349 Y141.432 E2.87581
G1 X153.068 Y141.73 E2.90428
G1 X153.107 Y141.744 E2.9058
G1 X153.497 Y141.878 E2.92089
G1 X153.578 Y141.9 E2.92396
G1 X153.932 Y141.973 E2.93718
G1 X153.994 Y141.983 E2.93948
G1 X154.409 Y142.028 E2.95475
G1 X154.485 Y142.032 E2.95754
G1 X154.899 Y142.029 E2.97268
G1 X154.999 Y142.021 E2.97635
G1 X155.407 Y141.955 E2.99147
G1 X155.466 Y141.942 E2.99368
G1 X155.808 Y141.854 E3.0066
G1 X155.865 Y141.837 E3.00878
G1 X156.182 Y141.724 E3.02109
G1 X156.419 Y141.674 E3.02996
G1 X156.855 Y141.681 E3.04591
G1 X157.517 Y141.835 E3.07078
G1 X157.732 Y141.917 E3.07919
G1 X157.919 Y142.057 E3.08774
G1 X158.52 Y142.694 E3.11978
G1 X158.61 Y142.898 E3.12794
G1 X158.738 Y143.715 E3.1582
G1 X158.726 Y143.883 E3.16436
G1 X158.652 Y144.104 E3.17288
G1 X158.364 Y144.474 E3.19004
G1 X158.317 Y144.543 E3.19309
G1 X158.129 Y144.86 E3.20658
G1 X158.096 Y144.924 E3.20921
G1 X157.952 Y145.241 E3.22195
G1 X157.924 Y145.315 E3.22484
G1 X157.799 Y145.711 E3.24004
G1 X157.775 Y145.815 E3.24394
G1 X157.707 Y146.283 E3.26124
G1 X157.7 Y146.388 E3.26509
G1 X157.708 Y146.907 E3.28408
G1 X157.723 Y147.036 E3.28884
G1 X157.836 Y147.562 E3.30852
G1 X157.855 Y147.632 E3.31117
G1 X157.961 Y147.949 E3.3234
G1 X157.973 Y147.982 E3.32469
G1 X158.134 Y148.39 E3.34073
G1 X158.234 Y148.552 E3.3477
G1 X158.232 Y148.586 E3.34895
G1 X158.261 Y148.718 E3.35389
G1 X158.414 Y149.173 E3.37145
G1 X158.45 Y149.259 E3.37486
G1 X158.647 Y149.651 E3.39091
G1 X158.684 Y149.716 E3.39365
G1 X158.846 Y149.964 E3.40449
G1 X158.878 Y150.009 E3.40651
G1 X159.093 Y150.285 E3.41931
G1 X159.12 Y150.317 E3.42084
G1 X159.187 Y150.393 E3.42455
G1 X159.352 Y150.881 E3.44339
G1 X159.365 Y150.918 E3.44483
G1 X159.5 Y151.251 E3.45798
G1 X159.563 Y151.421 E3.46461
G1 X159.573 Y151.783 E3.47786
G1 X159.58 Y151.859 E3.48065
G1 X159.658 Y152.404 E3.50079
G1 X159.67 Y152.466 E3.5031
G1 X159.684 Y152.523 E3.50525
G1 X159.719 Y153.349 E3.5355
G1 X159.489 Y154.297 E3.57119
G1 X159.432 Y154.393 E3.57527
G1 X159.23 Y154.525 E3.5841
G1 X158.746 Y154.717 E3.60315
G1 X158.438 Y154.797 E3.61479
G1 X158.173 Y154.838 E3.6246
G1 X158.117 Y154.849 E3.62669
G1 X157.717 Y154.946 E3.64175
G1 X157.596 Y154.988 E3.64644
G1 X157.126 Y155.205 E3.66538
G1 X157.009 Y155.275 E3.67036
G1 X156.661 Y155.534 E3.68624
G1 X156.565 Y155.62 E3.69095
G1 X156.293 Y155.921 E3.70579
G1 X156.228 Y156.008 E3.70977
G1 X155.997 Y156.368 E3.72542
G1 X155.941 Y156.476 E3.72987
G1 X155.763 Y156.914 E3.74717
G1 X155.73 Y157.018 E3.75116
G1 X155.642 Y157.413 E3.76596
G1 X155.633 Y157.461 E3.76775
G1 X155.613 Y157.6 E3.77289
G1 X155.452 Y157.731 E3.78048
G1 X155.428 Y157.751 E3.78162
G1 X155.186 Y157.968 E3.79352
G1 X155.149 Y158.004 E3.79541
G1 X154.884 Y158.282 E3.80946
G1 X154.849 Y158.321 E3.81137
G1 X154.695 Y158.511 E3.82032
G1 X154.669 Y158.547 E3.82195
G1 X154.484 Y158.809 E3.83368
G1 X154.005 Y159.253 E3.85758
G1 X153.639 Y159.406 E3.87209
G1 X152.46 Y159.654 E3.91617
G1 X152.219 Y159.655 E3.92499
G1 X152.018 Y159.565 E3.93304
G1 X151.672 Y159.389 E3.94725
G1 X151.617 Y159.364 E3.94946
G1 X151.351 Y159.258 E3.95993
G1 X151.28 Y159.234 E3.96267
G1 X150.964 Y159.148 E3.97466
G1 X150.856 Y159.128 E3.97867
G1 X150.464 Y159.089 E3.99309
G1 X150.35 Y159.088 E3.99726
G1 X150.028 Y159.112 E4.00907
G1 X149.93 Y159.127 E4.0127
G1 X149.436 Y159.24 E4.03124
G1 X149.312 Y159.281 E4.03602
G1 X148.921 Y159.457 E4.05171
G1 X148.857 Y159.49 E4.05434
G1 X148.551 Y159.67 E4.06733
G1 X148.515 Y159.693 E4.06889
G1 X148.266 Y159.863 E4.07992
G1 X147.854 Y159.995 E4.09575
G1 X147.742 Y159.985 E4.09986
G1 X146.828 Y159.658 E4.13538
G1 X146.678 Y159.534 E4.1425
G1 X146.41 Y159.271 E4.15624
G1 X146.384 Y159.247 E4.15753
G1 X146.018 Y158.925 E4.17537
G1 X145.967 Y158.885 E4.17774
G1 X145.746 Y158.726 E4.1877
G1 X145.717 Y158.706 E4.18899
G1 X145.408 Y158.508 E4.20242
G1 X145.384 Y158.494 E4.20343
G1 X144.689 Y158.089 E4.23286
G1 X144.234 Y157.584 E4.25773
G1 X143.997 Y157.217 E4.27371
G1 X143.966 Y157.172 E4.27571
G1 X143.734 Y156.871 E4.28962
G1 X143.693 Y156.823 E4.29193
G1 X143.493 Y156.609 E4.30264
G1 X143.44 Y156.558 E4.30533
G1 X143.104 Y156.271 E4.3215
G1 X143.05 Y156.23 E4.32398
G1 X142.836 Y156.082 E4.3335
G1 X142.778 Y156.046 E4.336
G1 X142.429 Y155.855 E4.35055
G1 X142.366 Y155.825 E4.35311
G1 X141.994 Y155.67 E4.36785
G1 X141.959 Y155.656 E4.36923
G1 X141.783 Y155.594 E4.37606
G1 X141.219 Y155.325 E4.39892
G1 X141.084 Y155.215 E4.40529
G1 X141.052 Y155.135 E4.40844
G1 X141.045 Y155.056 E4.41134
G1 X141.059 Y154.964 E4.41475
G1 X141.282 Y154.38 E4.43762
G1 X141.499 Y153.926 E4.45603
G1 X141.527 Y153.857 E4.45875
G1 X141.666 Y153.453 E4.47439
G1 X141.683 Y153.396 E4.47656
G1 X141.777 Y153.014 E4.49095
G1 X141.794 Y152.909 E4.49485
G1 X141.829 Y152.477 E4.5107
G1 X141.83 Y152.397 E4.51363
G1 X141.812 Y151.962 E4.52956
G1 X141.807 Y151.901 E4.5318
G1 X141.767 Y151.604 E4.54276
G1 X141.762 Y151.571 E4.54398
G1 X141.702 Y151.249 E4.55597
G1 X141.696 Y151.222 E4.55698
G1 X141.606 Y150.831 E4.57166
G1 X141.611 Y150.796 E4.57295
G1 X141.619 Y150.73 E4.57538
G1 X141.679 Y149.812 E4.60904
G1 X141.679 Y149.798 E4.60955
G1 X141.68 Y149.785 E4.61003
G1 X141.745 Y149.713 E4.61358
G1 X141.83 Y149.588 E4.61911
G1 X141.865 Y149.495 E4.62275
G1 X141.879 Y149.487 E4.62334
G1 X142.012 Y149.348 E4.63037
G1 X142.299 Y148.944 E4.6485
G1 X142.332 Y148.893 E4.65073
G1 X142.496 Y148.61 E4.66269
G1 X142.514 Y148.576 E4.6641
G1 X142.704 Y148.199 E4.67955
G1 X142.753 Y148.072 E4.68453
G1 X142.819 Y147.823 E4.69395
G1 X142.903 Y147.677 E4.70011
G1 X142.992 Y147.42 E4.71007
G1 X143.022 Y147.231 E4.71707
G1 X143.288 Y146.69 E4.73912
G1 X143.3 Y146.665 E4.74014
G1 X143.484 Y146.247 E4.75685
G1 X143.514 Y146.164 E4.76008
G1 X143.671 Y145.621 E4.78076
G1 X143.688 Y145.547 E4.78353
G1 X143.785 Y144.97 E4.80494
G1 X143.783 Y144.742 E4.81328
G1 X143.778 Y144.728 E4.81383
G1 X143.8 Y144.569 E4.8197
G1 X143.757 Y144.139 E4.83551
G1 X143.75 Y144.093 E4.83721
G1 X143.705 Y143.832 E4.8469
G1 X143.692 Y143.771 E4.84918
